X:1
T:James Gibb editions
T:Father, in Thy mysterious presence kneeling - Barnby
%%score [ ( 1 2 ) ( 3 4 ) ]
L:1/8
Q:1/4=104
M:4/4
K:D
V:1 treble nm="Midi_74"
V:2 treble 
V:3 bass nm="Midi_74"
V:4 bass 
V:1
"^Samuel Johnson\n(1822-82)""^11 10. 11 10""^Father, in Thy mysterious presence kneeling""^Joseph Barnby\n(1838-96)" F2 FF F2 F2 | %1
w: Fa- ther, in Thy my-|
 F2 F2 G2 F2 | E4 F4 || F2 FF F2 F2 |[M:4/4] F2 F2 B2 A2 | G8 || G2 GG G2 G2 | G2 G2 G2 A2 | %8
w: ste- rious pre- sence|kneel- ing;|Fain would our souls feel|all Thy kind- ling|love;|For we are weak, and|need some deep re-|
 A4 B4- | B2 || B2 A2 G2 | F6 G2 | A2 F2 E3 D | D8 || D4 D4 |] %15
w: veal- ing||Of trust, and|strength, and|calm- ness from a-|bove.|A- men.|
V:2
 D2 DD D2 D2 | D2 D2 E2 D2 | (D2 C2) D4 || ^D2 DD D2 D2 |[M:4/4] ^D2 D2 D2 D2 | E8 || E2 EE E2 E2 | %7
 E2 E2 D2 =C2 | =C4 B,4- | B,2 || G2 F2 E2 | D6 D2 | D2 D2 C3 D | D8 || B,4 A,4 |] %15
V:3
 A,2 A,A, A,2 A,2 | A,2 A,2 A,2 A,2 | A,4 A,4 || B,2 B,B, B,2 B,2 |[M:4/4] B,2 A,2 G,2 F,2 | E,8 || %6
 =C2 CC C2 C2 | G,2 G,2 G,2 F,2 | F,4 G,4- | G,2 || B,2 !courtesy!^C2 C2 | %11
"^2 Lord, we have wandered forth through doubt and sorrow,\nAnd you have made each step an onward one,\nAnd we will ever trust each unknown morrow;\nYou will sustain us till its work is done.\n\n3 Now, Father, now in your dear presence kneeling,\nOur spirits yearn to feel your kindling love;\nNow make us strong; we need your deep revealing\nOf trust and strength and calmness from above." (D4 D,2) E,2 | %12
 F,2 A,2 G,3 F, | F,8 || G,4 F,4 |] %15
V:4
 D,2 D,D, D,2 D,2 | D,2 D,2 C,2 D,2 | A,,4 D,4 || B,,2 B,,B,, B,,2 B,,2 | %4
[M:4/4] B,,2 B,,2 B,,2 B,,2 | E,8 || =C,2 C,C, C,2 C,2 | =C,2 C,2 B,,2 A,,2 | A,,4 G,,4- | G,,2 || %10
 G,,2 A,,2 A,,2 | B,,6 B,,2 | A,,2 A,,2 A,,3 D, | D,8 || G,,4 D,4 |] %15

